X:87
T:Mole-Catcher's Hornpipe.  ThoH.087, The
Q:1/2=90
M:3/2
L:1/8
B:Thompson's Compleat Collection of 120 Favourite Hornpipes.
Z:Village Music Project, Simon Wilson 2016
O:England.
K:G
G3A BABGF2D2|d2g2-g2dcB2A2|G2b2-b2G2F2a2|
E2g2-g2E2D2f2|fgefd2c2B2A2|BdBG AcAFG4:|
|:G2D2DEDCB,2G,2|A,G,A,B, CDED CB,A,G,|B,2D2G2d2B2G2|
ecBcd2F2E2D2|dcBd cBAc BAGB|D2G2BAGFG4:|
|:g2dge2dcB2G2|g2bge2afd4|gfga bagfe4|
e2a2-a2g2f2d2|gbge fafde4|AcBdg2B2A2G2:|

